icons/modern/aries.svg

<svg width="32" height="32" viewBox="0 0 32 32" fill="none" xmlns="http://www.w3.org/2000/svg">
<g filter="url(#filter0_ii_18590_1138)">
<rect x="2.51233" y="2.1875" width="27.875" height="27.875" rx="3.6" fill="url(#paint0_linear_18590_1138)"/>
<rect x="2.51233" y="2.1875" width="27.875" height="27.875" rx="3.6" fill="url(#paint1_radial_18590_1138)"/>
</g>
<g filter="url(#filter1_f_18590_1138)">
<path d="M28.6998 4.6875V27.5625" stroke="url(#paint2_linear_18590_1138)" stroke-width="1.5" stroke-linecap="round"/>
</g>
<g filter="url(#filter2_f_18590_1138)">
<path d="M5.9762 4H27.7574" stroke="url(#paint3_linear_18590_1138)" stroke-width="1.5" stroke-linecap="round"/>
</g>
<g filter="url(#filter3_f_18590_1138)">
<path d="M23.2063 5.625C22.1963 5.625 21.2163 5.985 20.4563 6.645C19.6863 7.295 19.1863 8.205 19.0263 9.205L16.6163 24.485C16.6063 24.565 16.5363 24.625 16.4463 24.625C16.3663 24.625 16.2863 24.565 16.2763 24.485L13.8663 9.195C13.7063 8.195 13.1963 7.295 12.4363 6.635C11.6663 5.985 10.6863 5.625 9.68629 5.625C7.34629 5.625 5.44629 7.525 5.44629 9.865C5.44629 10.415 5.89629 10.865 6.44629 10.865C6.99629 10.865 7.44629 10.415 7.44629 9.865C7.44629 8.625 8.44629 7.625 9.68629 7.625C10.7963 7.625 11.7263 8.415 11.8963 9.515L14.3063 24.795C14.4763 25.855 15.3763 26.625 16.4463 26.625C17.5163 26.625 18.4263 25.855 18.5863 24.795L20.9963 9.515C21.1663 8.425 22.0963 7.625 23.2063 7.625C24.4463 7.625 25.4463 8.625 25.4463 9.865C25.4463 10.415 25.8963 10.865 26.4463 10.865C26.9963 10.865 27.4463 10.415 27.4463 9.865C27.4463 7.525 25.5463 5.625 23.2063 5.625Z" fill="#6A4EBE"/>
</g>
<g filter="url(#filter4_ii_18590_1138)">
<path d="M23.2063 5.625C22.1963 5.625 21.2163 5.985 20.4563 6.645C19.6863 7.295 19.1863 8.205 19.0263 9.205L16.6163 24.485C16.6063 24.565 16.5363 24.625 16.4463 24.625C16.3663 24.625 16.2863 24.565 16.2763 24.485L13.8663 9.195C13.7063 8.195 13.1963 7.295 12.4363 6.635C11.6663 5.985 10.6863 5.625 9.68629 5.625C7.34629 5.625 5.44629 7.525 5.44629 9.865C5.44629 10.415 5.89629 10.865 6.44629 10.865C6.99629 10.865 7.44629 10.415 7.44629 9.865C7.44629 8.625 8.44629 7.625 9.68629 7.625C10.7963 7.625 11.7263 8.415 11.8963 9.515L14.3063 24.795C14.4763 25.855 15.3763 26.625 16.4463 26.625C17.5163 26.625 18.4263 25.855 18.5863 24.795L20.9963 9.515C21.1663 8.425 22.0963 7.625 23.2063 7.625C24.4463 7.625 25.4463 8.625 25.4463 9.865C25.4463 10.415 25.8963 10.865 26.4463 10.865C26.9963 10.865 27.4463 10.415 27.4463 9.865C27.4463 7.525 25.5463 5.625 23.2063 5.625Z" fill="#FCF2FF"/>
</g>
<defs>
<filter id="filter0_ii_18590_1138" x="2.51233" y="1.1875" width="29.875" height="28.875" filterUnits="userSpaceOnUse" color-interpolation-filters="sRGB">
<feFlood flood-opacity="0" result="BackgroundImageFix"/>
<feBlend mode="normal" in="SourceGraphic" in2="BackgroundImageFix" result="shape"/>
<feColorMatrix in="SourceAlpha" type="matrix" values="0 0 0 0 0 0 0 0 0 0 0 0 0 0 0 0 0 0 127 0" result="hardAlpha"/>
<feOffset dx="2" dy="-1"/>
<feGaussianBlur stdDeviation="1.5"/>
<feComposite in2="hardAlpha" operator="arithmetic" k2="-1" k3="1"/>
<feColorMatrix type="matrix" values="0 0 0 0 0.298039 0 0 0 0 0.235294 0 0 0 0 0.6 0 0 0 1 0"/>
<feBlend mode="normal" in2="shape" result="effect1_innerShadow_18590_1138"/>
<feColorMatrix in="SourceAlpha" type="matrix" values="0 0 0 0 0 0 0 0 0 0 0 0 0 0 0 0 0 0 127 0" result="hardAlpha"/>
<feOffset dy="-1"/>
<feGaussianBlur stdDeviation="1.5"/>
<feComposite in2="hardAlpha" operator="arithmetic" k2="-1" k3="1"/>
<feColorMatrix type="matrix" values="0 0 0 0 0.352941 0 0 0 0 0.211765 0 0 0 0 0.709804 0 0 0 1 0"/>
<feBlend mode="normal" in2="effect1_innerShadow_18590_1138" result="effect2_innerShadow_18590_1138"/>
</filter>
<filter id="filter1_f_18590_1138" x="25.9498" y="1.9375" width="5.5" height="28.375" filterUnits="userSpaceOnUse" color-interpolation-filters="sRGB">
<feFlood flood-opacity="0" result="BackgroundImageFix"/>
<feBlend mode="normal" in="SourceGraphic" in2="BackgroundImageFix" result="shape"/>
<feGaussianBlur stdDeviation="1" result="effect1_foregroundBlur_18590_1138"/>
</filter>
<filter id="filter2_f_18590_1138" x="3.2262" y="1.25" width="27.2812" height="5.5" filterUnits="userSpaceOnUse" color-interpolation-filters="sRGB">
<feFlood flood-opacity="0" result="BackgroundImageFix"/>
<feBlend mode="normal" in="SourceGraphic" in2="BackgroundImageFix" result="shape"/>
<feGaussianBlur stdDeviation="1" result="effect1_foregroundBlur_18590_1138"/>
</filter>
<filter id="filter3_f_18590_1138" x="4.44629" y="4.625" width="24" height="23" filterUnits="userSpaceOnUse" color-interpolation-filters="sRGB">
<feFlood flood-opacity="0" result="BackgroundImageFix"/>
<feBlend mode="normal" in="SourceGraphic" in2="BackgroundImageFix" result="shape"/>
<feGaussianBlur stdDeviation="0.5" result="effect1_foregroundBlur_18590_1138"/>
</filter>
<filter id="filter4_ii_18590_1138" x="5.04629" y="5.225" width="22.8" height="21.8" filterUnits="userSpaceOnUse" color-interpolation-filters="sRGB">
<feFlood flood-opacity="0" result="BackgroundImageFix"/>
<feBlend mode="normal" in="SourceGraphic" in2="BackgroundImageFix" result="shape"/>
<feColorMatrix in="SourceAlpha" type="matrix" values="0 0 0 0 0 0 0 0 0 0 0 0 0 0 0 0 0 0 127 0" result="hardAlpha"/>
<feOffset dx="-0.4" dy="0.4"/>
<feGaussianBlur stdDeviation="0.375"/>
<feComposite in2="hardAlpha" operator="arithmetic" k2="-1" k3="1"/>
<feColorMatrix type="matrix" values="0 0 0 0 0.913725 0 0 0 0 0.886275 0 0 0 0 0.968627 0 0 0 1 0"/>
<feBlend mode="normal" in2="shape" result="effect1_innerShadow_18590_1138"/>
<feColorMatrix in="SourceAlpha" type="matrix" values="0 0 0 0 0 0 0 0 0 0 0 0 0 0 0 0 0 0 127 0" result="hardAlpha"/>
<feOffset dx="0.4" dy="-0.4"/>
<feGaussianBlur stdDeviation="0.2"/>
<feComposite in2="hardAlpha" operator="arithmetic" k2="-1" k3="1"/>
<feColorMatrix type="matrix" values="0 0 0 0 1 0 0 0 0 0.988235 0 0 0 0 1 0 0 0 1 0"/>
<feBlend mode="normal" in2="effect1_innerShadow_18590_1138" result="effect2_innerShadow_18590_1138"/>
</filter>
<linearGradient id="paint0_linear_18590_1138" x1="16.4498" y1="5.76201" x2="16.4498" y2="39.0147" gradientUnits="userSpaceOnUse">
<stop stop-color="#9865EE"/>
<stop offset="1" stop-color="#7764C6"/>
</linearGradient>
<radialGradient id="paint1_radial_18590_1138" cx="0" cy="0" r="1" gradientUnits="userSpaceOnUse" gradientTransform="translate(28.1686 4.28125) rotate(136.771) scale(2.14444 2.50466)">
<stop stop-color="#BB8DFF"/>
<stop offset="1" stop-color="#BB8DFF" stop-opacity="0"/>
</radialGradient>
<linearGradient id="paint2_linear_18590_1138" x1="29.1998" y1="4.6875" x2="29.1998" y2="27.5625" gradientUnits="userSpaceOnUse">
<stop stop-color="#AE7EFF"/>
<stop offset="1" stop-color="#8777D6"/>
</linearGradient>
<linearGradient id="paint3_linear_18590_1138" x1="28.9137" y1="4.25002" x2="3.38245" y2="4.25002" gradientUnits="userSpaceOnUse">
<stop stop-color="#A672FF"/>
<stop offset="1" stop-color="#9A6CEB"/>
</linearGradient>
</defs>
</svg>

<svg width="32" height="32" fill="none" xmlns="http://www.w3.org/2000/svg"><g filter="url(#a)"><rect x="2.512" y="2.188" width="27.875" height="27.875" rx="3.6" fill="url(#b)"/><rect x="2.512" y="2.188" width="27.875" height="27.875" rx="3.6" fill="url(#c)"/></g><g filter="url(#d)"><path d="M28.7 4.688v22.875" stroke="url(#e)" stroke-width="1.5" stroke-linecap="round"/></g><g filter="url(#f)"><path d="M5.976 4h21.781" stroke="url(#g)" stroke-width="1.5" stroke-linecap="round"/></g><g filter="url(#h)"><path d="M23.206 5.625c-1.01 0-1.99.36-2.75 1.02-.77.65-1.27 1.56-1.43 2.56l-2.41 15.28c-.01.08-.08.14-.17.14-.08 0-.16-.06-.17-.14l-2.41-15.29c-.16-1-.67-1.9-1.43-2.56a4.242 4.242 0 0 0-6.99 3.23c0 .55.45 1 1 1s1-.45 1-1c0-1.24 1-2.24 2.24-2.24 1.11 0 2.04.79 2.21 1.89l2.41 15.28a2.161 2.161 0 0 0 2.14 1.83c1.07 0 1.98-.77 2.14-1.83l2.41-15.28c.17-1.09 1.1-1.89 2.21-1.89 1.24 0 2.24 1 2.24 2.24 0 .55.45 1 1 1s1-.45 1-1c0-2.34-1.9-4.24-4.24-4.24Z" fill="#6A4EBE"/></g><g filter="url(#i)"><path d="M23.206 5.625c-1.01 0-1.99.36-2.75 1.02-.77.65-1.27 1.56-1.43 2.56l-2.41 15.28c-.01.08-.08.14-.17.14-.08 0-.16-.06-.17-.14l-2.41-15.29c-.16-1-.67-1.9-1.43-2.56a4.242 4.242 0 0 0-6.99 3.23c0 .55.45 1 1 1s1-.45 1-1c0-1.24 1-2.24 2.24-2.24 1.11 0 2.04.79 2.21 1.89l2.41 15.28a2.161 2.161 0 0 0 2.14 1.83c1.07 0 1.98-.77 2.14-1.83l2.41-15.28c.17-1.09 1.1-1.89 2.21-1.89 1.24 0 2.24 1 2.24 2.24 0 .55.45 1 1 1s1-.45 1-1c0-2.34-1.9-4.24-4.24-4.24Z" fill="#FCF2FF"/></g><defs><filter id="a" x="2.512" y="1.188" width="29.875" height="28.875" filterUnits="userSpaceOnUse" color-interpolation-filters="sRGB"><feFlood flood-opacity="0" result="BackgroundImageFix"/><feBlend in="SourceGraphic" in2="BackgroundImageFix" result="shape"/><feColorMatrix in="SourceAlpha" values="0 0 0 0 0 0 0 0 0 0 0 0 0 0 0 0 0 0 127 0" result="hardAlpha"/><feOffset dx="2" dy="-1"/><feGaussianBlur stdDeviation="1.5"/><feComposite in2="hardAlpha" operator="arithmetic" k2="-1" k3="1"/><feColorMatrix values="0 0 0 0 0.298039 0 0 0 0 0.235294 0 0 0 0 0.6 0 0 0 1 0"/><feBlend in2="shape" result="effect1_innerShadow_18590_1138"/><feColorMatrix in="SourceAlpha" values="0 0 0 0 0 0 0 0 0 0 0 0 0 0 0 0 0 0 127 0" result="hardAlpha"/><feOffset dy="-1"/><feGaussianBlur stdDeviation="1.5"/><feComposite in2="hardAlpha" operator="arithmetic" k2="-1" k3="1"/><feColorMatrix values="0 0 0 0 0.352941 0 0 0 0 0.211765 0 0 0 0 0.709804 0 0 0 1 0"/><feBlend in2="effect1_innerShadow_18590_1138" result="effect2_innerShadow_18590_1138"/></filter><filter id="d" x="25.95" y="1.938" width="5.5" height="28.375" filterUnits="userSpaceOnUse" color-interpolation-filters="sRGB"><feFlood flood-opacity="0" result="BackgroundImageFix"/><feBlend in="SourceGraphic" in2="BackgroundImageFix" result="shape"/><feGaussianBlur stdDeviation="1" result="effect1_foregroundBlur_18590_1138"/></filter><filter id="f" x="3.226" y="1.25" width="27.281" height="5.5" filterUnits="userSpaceOnUse" color-interpolation-filters="sRGB"><feFlood flood-opacity="0" result="BackgroundImageFix"/><feBlend in="SourceGraphic" in2="BackgroundImageFix" result="shape"/><feGaussianBlur stdDeviation="1" result="effect1_foregroundBlur_18590_1138"/></filter><filter id="h" x="4.446" y="4.625" width="24" height="23" filterUnits="userSpaceOnUse" color-interpolation-filters="sRGB"><feFlood flood-opacity="0" result="BackgroundImageFix"/><feBlend in="SourceGraphic" in2="BackgroundImageFix" result="shape"/><feGaussianBlur stdDeviation=".5" result="effect1_foregroundBlur_18590_1138"/></filter><filter id="i" x="5.046" y="5.225" width="22.8" height="21.8" filterUnits="userSpaceOnUse" color-interpolation-filters="sRGB"><feFlood flood-opacity="0" result="BackgroundImageFix"/><feBlend in="SourceGraphic" in2="BackgroundImageFix" result="shape"/><feColorMatrix in="SourceAlpha" values="0 0 0 0 0 0 0 0 0 0 0 0 0 0 0 0 0 0 127 0" result="hardAlpha"/><feOffset dx="-.4" dy=".4"/><feGaussianBlur stdDeviation=".375"/><feComposite in2="hardAlpha" operator="arithmetic" k2="-1" k3="1"/><feColorMatrix values="0 0 0 0 0.913725 0 0 0 0 0.886275 0 0 0 0 0.968627 0 0 0 1 0"/><feBlend in2="shape" result="effect1_innerShadow_18590_1138"/><feColorMatrix in="SourceAlpha" values="0 0 0 0 0 0 0 0 0 0 0 0 0 0 0 0 0 0 127 0" result="hardAlpha"/><feOffset dx=".4" dy="-.4"/><feGaussianBlur stdDeviation=".2"/><feComposite in2="hardAlpha" operator="arithmetic" k2="-1" k3="1"/><feColorMatrix values="0 0 0 0 1 0 0 0 0 0.988235 0 0 0 0 1 0 0 0 1 0"/><feBlend in2="effect1_innerShadow_18590_1138" result="effect2_innerShadow_18590_1138"/></filter><linearGradient id="b" x1="16.45" y1="5.762" x2="16.45" y2="39.015" gradientUnits="userSpaceOnUse"><stop stop-color="#9865EE"/><stop offset="1" stop-color="#7764C6"/></linearGradient><linearGradient id="e" x1="29.2" y1="4.688" x2="29.2" y2="27.563" gradientUnits="userSpaceOnUse"><stop stop-color="#AE7EFF"/><stop offset="1" stop-color="#8777D6"/></linearGradient><linearGradient id="g" x1="28.914" y1="4.25" x2="3.382" y2="4.25" gradientUnits="userSpaceOnUse"><stop stop-color="#A672FF"/><stop offset="1" stop-color="#9A6CEB"/></linearGradient><radialGradient id="c" cx="0" cy="0" r="1" gradientUnits="userSpaceOnUse" gradientTransform="matrix(-1.56249 1.46876 -1.71548 -1.82495 28.169 4.281)"><stop stop-color="#BB8DFF"/><stop offset="1" stop-color="#BB8DFF" stop-opacity="0"/></radialGradient></defs></svg>
